!!!AGN: Motet
!!!SCT: Nugent (1982)
!!!voices: 4
!!!COM: Jachet of Mantua
!!!OTL: Retribuere dignare, Domine
**kern	**kern	**kern	**kern
*part4	*part3	*part2	*part1
*staff4	*staff3	*staff2	*staff1
*I"Bassus	*I"Tenor	*I"Altus	*I"Superius
*I'B	*I'T	*I'A	*I'S
*clefF4	*clefGv2	*clefGv2	*clefG2
*k[]	*k[]	*k[]	*k[]
*C:	*C:	*C:	*C:
*M2/1	*M2/1	*M2/1	*M2/1
*met(C|)	*met(C|)	*met(C|)	*met(C|)
!!section: Prima pars: Retribuere dignare, Domine
!!!OMD: Prima pars: Retribuere dignare, Domine
0r	0r	0d	0r
=1	=1	=1	=1
0r	0r	1c	0r
.	.	[1d	.
=2	=2	=2	=2
0r	0r	2d]	0a
.	.	2d	.
.	.	1A	.
=3	=3	=3	=3
0r	0r	0c	1g
.	.	.	[1a
=4	=4	=4	=4
0r	0r	1d	2a]
.	.	.	2a
.	.	[1c	1e
=5	=5	=5	=5
0r	0r	2c]	0g
.	.	4B	.
.	.	4A	.
.	.	2.B	.
.	.	4A	.
=6	=6	=6	=6
0r	0r	2A	1a
.	.	1c	.
.	.	.	[1g
.	.	2B	.
=7	=7	=7	=7
0D	0r	1.A	2g]
.	.	.	4f
.	.	.	4e
.	.	.	2.f
.	.	4G	.
.	.	4F	4e
=8	=8	=8	=8
1C	0r	2G	1.e
.	.	2.A	.
[1D	.	.	.
.	.	4G	.
.	.	4F	4d
.	.	4E	4c
=9	=9	=9	=9
2D]	0A	1F	1d
2D	.	.	.
1AA	.	[1E	1c
=10	=10	=10	=10
0C	1G	1E]	0r
.	[1A	1r	.
=11	=11	=11	=11
1D	2A]	1r	0r
.	2A	.	.
[1C	1E	[1c	.
=12	=12	=12	=12
2C]	0G	1c]	0r
4BB	.	.	.
4AA	.	.	.
2.BB	.	1d	.
4AA	.	.	.
=13	=13	=13	=13
1AA	1A	1.c	1r
1r	[1G	.	[1g
.	.	4B	.
.	.	4A	.
=14	=14	=14	=14
0r	2G]	2.B	1g]
.	4F	.	.
.	4E	4A	.
.	2.F	2A	1a
.	.	[2c	.
.	4F	.	.
=15	=15	=15	=15
0C	0E	2c]	1.g
.	.	4B	.
.	.	4A	.
.	.	2G	.
.	.	2A	4f
.	.	.	4e
=16	=16	=16	=16
1D	1r	1A	2.f
.	.	.	4e
[1C	[1c	1r	[1e
=17	=17	=17	=17
2C]	1c]	0G	1e]
4BB	.	.	.
4AA	.	.	.
2.BB	1d	.	1r
4AA	.	.	.
=18	=18	=18	=18
4AA	1.c	1A	0e
4BB	.	.	.
4C	.	.	.
4D	.	.	.
[1E	.	[1G	.
.	4B	.	.
.	4A	.	.
=19	=19	=19	=19
1E]	1B	2G]	1e
.	.	4F	.
.	.	4E	.
1r	1A	2.F	1d
.	.	4E	.
=20	=20	=20	=20
1.AA	[0A	[0E	1.e
2AA	.	.	2c
=21	=21	=21	=21
0AA;	0A;]	0E;]	0c;
=22	=22	=22	=22
1.E	1.B	1.G	1.e
2E	2B	2G	2e
=23	=23	=23	=23
0E	1B	2.G	0e
.	.	4A	.
.	2.G	2B	.
.	.	2c	.
.	4A	.	.
=24	=24	=24	=24
0E	2B	2B	2.g
.	2c	2E	.
.	.	.	4a
.	2B	1e	2b
.	2G	.	[2cc
=25	=25	=25	=25
0F	0A	1.c	4cc]
.	.	.	4b
.	.	.	4a
.	.	.	4g
.	.	.	1a
.	.	[2d	.
=26	=26	=26	=26
[0G	[0B	2d]	0g
.	.	4c	.
.	.	4B	.
.	.	2d	.
.	.	2G	.
=27	=27	=27	=27
1G]	1B]	2r	1.g
.	.	1d	.
1E	1r	.	.
.	.	2c	2g
=28	=28	=28	=28
1D	0r	2.f	2.a
.	.	4e	4g
1r	.	2d	2f
.	.	2c	2e
=29	=29	=29	=29
2r	1r	0d	2.d
1D	.	.	.
.	.	.	4e
.	2r	.	1f
2D	[2A	.	.
=30	=30	=30	=30
1E	2A]	1B	0e
.	2G	.	.
2.E	2.c	1r	.
4D	4B	.	.
=31	=31	=31	=31
2C	2A	1.d	0r
2BB	2G	.	.
[1AA	[1A	.	.
.	.	2c	.
=32	=32	=32	=32
1AA]	1A]	2.e	2r
.	.	.	1a
.	.	4d	.
1r	2.E	2c	.
.	.	2B	2g
.	4G	.	.
=33	=33	=33	=33
2r	1F	4A	1.cc
.	.	4B	.
1A	.	4c	.
.	.	4d	.
.	1E	[1e	.
2G	.	.	2b
=34	=34	=34	=34
2.c	1r	2e]	2a
.	.	1c	2g
4B	.	.	.
2A	2r	.	2a
2G	[2d	2B	4d
.	.	.	4e
=35	=35	=35	=35
2.F	2d]	1A	4f
.	.	.	4g
.	2d	.	4a
4E	.	.	4b
2C	2.e	1G	2cc
2E	.	.	[2b
.	4d	.	.
=36	=36	=36	=36
1F	2c	2c	4b]
.	.	.	4a
.	4B	2d	1a
.	4A	.	.
1E	2B	1e	.
.	2B	.	2g#i
=37	=37	=37	=37
1.F	2A	2r	[0a
.	2.D	2A	.
.	.	2d	.
.	4E	.	.
[2D	4F	2d	.
.	4G	.	.
=38	=38	=38	=38
4D]	2A	2d	1a]
4E	.	.	.
4F	2.D	4r	.
4G	.	4A	.
2A	.	2d	2r
.	4E	.	.
[2D	4F	2d	2d
.	4D	.	.
=39	=39	=39	=39
4D]	1F	2d	2a
4C	.	.	.
4D	.	2d	2a
4C	.	.	.
1AA	1E	2.c	2a
.	.	.	2a
.	.	4d	.
=40	=40	=40	=40
0r	0r	2e	2g
.	.	2.f	2.a
.	.	4e	4g
.	.	4d	4f
.	.	4c	4e
=41	=41	=41	=41
1r	2r	1d	1f
.	2D	.	.
2r	2A	1c	1e
2AA	2A	.	.
=42	=42	=42	=42
2D	2A	0r	0r
2D	4r	.	.
.	4D	.	.
2D	2A	.	.
2D	2A	.	.
=43	=43	=43	=43
2.C	2A	0r	0r
.	2A	.	.
4D	.	.	.
2E	2G	.	.
[2F	[2A	.	.
=44	=44	=44	=44
4F]	4A]	1r	2r
4E	4G	.	.
4D	4F	.	2A
4C	4E	.	.
[1D	2.F	2r	2d
.	.	2D	2d
.	4E	.	.
=45	=45	=45	=45
1D]	1F	2A	2d
.	.	2A	2d
1AA	1E	2A	2.c
.	.	2A	.
.	.	.	4d
=46	=46	=46	=46
2r	0r	2G	2e
2D	.	2.A	2.f
2A	.	.	.
.	.	4G	4e
2A	.	4F	[2e
.	.	4E	.
=47	=47	=47	=47
2A	0r	1F	2e]
2A	.	.	2d
2G	.	2E	2e
[2A	.	[2c	4r
.	.	.	4e
=48	=48	=48	=48
4A]	2r	4c]	2a
4G	.	4B	.
4F	2A	4A	2a
4E	.	4G	.
1D	2d	1A	2a
.	2d	.	2a
=49	=49	=49	=49
1G	2d	1B	4g
.	.	.	4a
.	2d	.	4b
.	.	.	8aL
.	.	.	8bJ
2C	2c	2G	2cc
[2G	[2d	[2g	[2b
=50	=50	=50	=50
4G]	4d]	4g]	4b]
4A	4c	4f	4a
2F	4B	2d	1a
.	4A	.	.
1E	1B	[1e	.
.	.	.	2g#i
=51	=51	=51	=51
0AA	0A	2e]	0a
.	.	4d	.
.	.	4c	.
.	.	1c	.
=52	=52	=52	=52
0D	0A	0d	0f
=53	=53	=53	=53
1C	0c	1e	1g
[1F	.	2.f	[1a
.	.	4e	.
=54	=54	=54	=54
2F]	1F	4d	2a]
.	.	4c	.
2E	.	1c	2g
1D	1F	.	1f
.	.	2B	.
=55	=55	=55	=55
0C	2.G	0c	1e
.	4E	.	.
.	2G	.	2r
.	2A	.	[2e
=56	=56	=56	=56
1D	2.F	0A	2e]
.	.	.	2d
.	4D	.	.
2AA	2E	.	2.c
[2A	2F	.	.
.	.	.	4d
=57	=57	=57	=57
2A]	1E	1B	[0e
2G#i	.	.	.
1A	1r	1c	.
=58	=58	=58	=58
2r	[0E	2B	1e]
1AA	.	2c	.
.	.	2A	1r
2GG	.	2B	.
=59	=59	=59	=59
0AA	1E]	0c	0e
.	1A	.	.
=60	=60	=60	=60
00E	00G	00B	00e
=61||	=61||	=61||	=61||
*M2/1	*M2/1	*M2/1	*M2/1
*met(C|)	*met(C|)	*met(C|)	*met(C|)
!!section: Secunda pars: Dominus conservet eos
!!!OMD: Secunda pars: Dominus conservet eos
1.E	1.B	1.e	1.g
2E	2B	2e	2g
=62	=62	=62	=62
0E	1B	[0e	1.g
.	1B	.	.
.	.	.	2e
=63	=63	=63	=63
1E	0c	1e]	1g
[1F	.	1A	1a
=64	=64	=64	=64
1F]	1A	1c	0f
1D	1A	1d	.
=65	=65	=65	=65
0E	0G#X	0B	[0e
=66	=66	=66	=66
2AA	2r	2.A	0e]
1A	1c	.	.
.	.	4G	.
.	.	1E	.
2G	2B	.	.
=67	=67	=67	=67
2.A	2.c	2r	0r
.	.	1e	.
4A	4c	.	.
[1G	[1B	.	.
.	.	2d	.
=68	=68	=68	=68
2G]	2B]	2.e	0r
4F	4A	.	.
4E	4G	4e	.
2F	2A	[1d	.
2G	2B	.	.
=69	=69	=69	=69
2F	2A	2d]	1r
2G	2B	4c	.
.	.	4B	.
2E	2G	2c	2r
2D	2A	2d	[2a
=70	=70	=70	=70
0r	1E	1B	2a]
.	.	.	2g
.	[1e	1A	2.a
.	.	.	4a
=71	=71	=71	=71
1r	0e]	1E	1.g
2r	.	2r	.
[2A	.	[2c	4f
.	.	.	4e
=72	=72	=72	=72
2A]	0r	2c]	2f
2G	.	2B	2g
2.A	.	2.c	1e
4A	.	4c	.
=73	=73	=73	=73
1.G	1r	1.B	1r
.	2r	.	2r
4F	[2e	4A	[2cc
4E	.	4G	.
=74	=74	=74	=74
2F	2e]	2A	2cc]
2G	2d	2B	2b
1C	2.e	1G	2.cc
.	4e	.	4cc
=75	=75	=75	=75
1G	1.d	2r	2.b
.	.	2g	.
.	.	.	8aL
.	.	.	8gJ
2r	.	2f	2a
2G	4c	2d	[2b
.	4B	.	.
=76	=76	=76	=76
2F	2c	1f	4b]
.	.	.	4a
2D	2d	.	1a
1E	1B	1e	.
.	.	.	2g#i
=77	=77	=77	=77
0AA	0A	1c	1a
.	.	2r	2r
.	.	2A	[2a
=78	=78	=78	=78
0r	0r	1c	2a]
.	.	.	2g
.	.	1d	1f
=79	=79	=79	=79
2r	2r	1A	0e
2AA	1A	.	.
1C	.	1r	.
.	2G	.	.
=80	=80	=80	=80
1D	1F	2r	1r
.	.	1d	.
1AA	[1E	.	2r
.	.	2c	2e
=81	=81	=81	=81
1r	1E]	1B	1g
2r	1r	2A	1a
[2A	.	[2c	.
=82	=82	=82	=82
2A]	0r	2c]	2e
2G	.	2d	2g
[1F	.	2.f	2a
.	.	.	[2cc
.	.	8eL	.
.	.	8dJ	.
=83	=83	=83	=83
1F]	2r	2c	4cc]
.	.	.	4b
.	2A	2d	1a
1E	1c	1e	.
.	.	.	2g
=84	=84	=84	=84
1.D	1d	2.A	1.f
.	.	4G	.
.	1A	[1F	.
2C	.	.	2e
=85	=85	=85	=85
1BB-X	2r	2F]	2.d
.	2G	4E	.
.	.	4D	8cL
.	.	.	8BJ
[1AA	2A	1E	2c
.	[2c	.	4A
.	.	.	4B
=86	=86	=86	=86
1AA]	4c]	[0e	4c
.	4B	.	4d
.	2A	.	4e
.	.	.	4f
2r	2.G	.	4g
.	.	.	4a
2E	.	.	4b
.	4A	.	4cc
=87	=87	=87	=87
2G	2B	0e]	4b
.	.	.	4a
2A	2c	.	1a
1E	1B	.	.
.	.	.	2g#i
=88	=88	=88	=88
0F	1.A	1c	[0a
.	.	2r	.
.	2D	2A	.
=89	=89	=89	=89
1D	2.F	1d	0a]
.	4G	.	.
2r	1A	2c	.
2D	.	[2f	.
=90	=90	=90	=90
1G	0r	4f]	2r
.	.	4e	.
.	.	1e	2e
1F	.	.	1a
.	.	2d	.
=91	=91	=91	=91
1E	2r	1e	2g
.	2G	.	2.b
1r	1c	2r	.
.	.	.	4a
.	.	2A	[2a
=92	=92	=92	=92
1r	1B	1d	2a]
.	.	.	2g#i
2r	1A	2c	1a
2D	.	[2f	.
=93	=93	=93	=93
1G	0r	4f]	2r
.	.	4e	.
.	.	1e	2e
1F	.	.	1a
.	.	2d	.
=94	=94	=94	=94
1E	2r	1e	2g
.	2G	.	2.b
1F	1c	2r	.
.	.	.	4a
.	.	2A	[2a
=95	=95	=95	=95
2D	1B	1d	2a]
2E	.	.	2g
2F	2A	1c	2.a
[2A	[2A	.	.
.	.	.	4g
=96	=96	=96	=96
4A]	2A]	2A	4f
4G	.	.	4e
4F	2A	1c	1e
4E	.	.	.
1F	2A	.	.
.	2A	4B	2d
.	.	4A	.
=97	=97	=97	=97
2E	1B	2.G	[0e
1E	.	.	.
.	.	4A	.
.	2.G	1B	.
2E	.	.	.
.	4A	.	.
=98	=98	=98	=98
2E	2B	1r	1e]
2E	2.c	.	.
1F	.	1A	1r
.	4B	.	.
.	4A	.	.
.	4G	.	.
=99	=99	=99	=99
2.D	4F	2A	0r
.	4D	.	.
.	2.d	2A	.
4E	.	.	.
2F	.	2A	.
.	4c	.	.
[2G	4B	[2B	.
.	4A	.	.
=100	=100	=100	=100
4G]	4G	2B]	2r
4F	4A	.	.
4E	1B	2.G	1e
4D	.	.	.
1E	.	.	.
.	.	4A	.
.	2G	2B	2e
=101	=101	=101	=101
1AA	1A	2.c	2e
.	.	.	2e
.	.	4B	.
1r	[1D	4A	1f
.	.	4G	.
.	.	[2A	.
=102	=102	=102	=102
0r	2D]	4A]	2.d
.	.	4D	.
.	1d	1f	.
.	.	.	4e
.	.	.	2f
.	2c	[2e	[2g
=103	=103	=103	=103
1r	1B	4e]	4g]
.	.	4d	4f
.	.	1d	4e
.	.	.	4d
2r	2.A	.	2e
[2A	.	2c	[2cc
.	4B	.	.
=104	=104	=104	=104
2A]	2c	2A	2cc]
2G	2d	2B	2.b
1F	2.A	2c	.
.	.	.	4a
.	.	2d	[2a
.	4B	.	.
=105	=105	=105	=105
2.E	2c	1.e	2a]
.	2.B	.	2g
4F	.	.	.
2G	.	.	2e
.	4A	.	.
2A	[2A	4d	[2f
.	.	4c	.
=106	=106	=106	=106
1E	2A]	1B	4f]
.	.	.	4e
.	2G#i	.	2e
2.F	1A	2r	2d
.	.	2A	2c
4E	.	.	.
=107	=107	=107	=107
2.D	2r	2A	1f
.	2A	2A	.
4C	.	.	.
1AA	2A	2.c	[1e
.	2A	.	.
.	.	4B	.
=108	=108	=108	=108
2r	1c	2A	0e]
2E	.	2.G	.
2E	2B	.	.
.	.	4A	.
2E	2G	4B	.
.	.	4G	.
=109	=109	=109	=109
1G	0d	1B	1r
2F	.	1A	2r
2D	.	.	2a
=110	=110	=110	=110
0A	1c	2r	2a
.	.	2e	2a
.	2A	2e	1cc
.	[2e	2e	.
=111	=111	=111	=111
1G	2e]	1g	2b
.	1d	.	2g
2r	.	2f	2a
2G	4c	2d	[2b
.	4B	.	.
=112	=112	=112	=112
2F	2c	1f	4b]
.	.	.	4a
2D	2d	.	1a
1E	1B	[1e	.
.	.	.	2g#i
=113	=113	=113	=113
1AA	1A	2e]	[0a
.	.	2A	.
2r	1D	2A	.
2A	.	2A	.
=114	=114	=114	=114
2A	2r	2.c	0a]
2A	2A	.	.
.	.	4d	.
2.c	2A	[1e	.
.	2A	.	.
4B	.	.	.
=115	=115	=115	=115
1A	1c	1e]	1r
2G	2B	1r	2r
2D	[2d	.	2a
=116	=116	=116	=116
0A	2d]	2r	2a
.	2c	2e	2a
.	2A	2e	1cc
.	[2e	2e	.
=117	=117	=117	=117
1G	2e]	1g	2b
.	1d	.	2g
2r	.	2f	2a
2G	4c	2d	[2b
.	4B	.	.
=118	=118	=118	=118
2F	2c	1f	4b]
.	.	.	4a
2D	2d	.	1a
1E	1B	1e	.
.	.	.	2g#i
=119	=119	=119	=119
1F	2A	2r	[0a
.	2D	2A	.
1D	2.F	2.d	.
.	4G	4d	.
=120	=120	=120	=120
2r	1A	2c	1a]
2D	.	2.f	.
1G	1r	.	2r
.	.	4e	.
.	.	[2e	2e
=121	=121	=121	=121
1F	1r	2e]	2.a
.	.	2d	.
.	.	.	4a
1E	2r	1e	2g
.	2G	.	[2b
=122	=122	=122	=122
0r	1c	2r	4b]
.	.	.	4a
.	.	2A	1a
.	1B	2.d	.
.	.	.	2g#i
.	.	4d	.
=123	=123	=123	=123
2r	1A	2c	1a
2D	.	2.f	.
1G	1r	.	2r
.	.	4e	.
.	.	[2e	2e
=124	=124	=124	=124
1F	1r	2e]	2.a
.	.	2d	.
.	.	.	4a
[1E	2r	[1e	2g
.	2G	.	[2b
=125	=125	=125	=125
0E]	1c	0e]	4b]
.	.	.	4a
.	.	.	1a
.	1B	.	.
.	.	.	2g
=126	=126	=126	=126
2r	0A	1c	2f
2AA	.	.	2e
2.D	.	1d	1f
4D	.	.	.
=127	=127	=127	=127
2C	2r	2e	2e
2.F	2D	2f	2.a
.	2.F	2c	.
4E	.	.	4g
[2D	.	[2f	4f
.	4G	.	4e
=128	=128	=128	=128
2D]	[0Al	2f]	2d
2C	.	2e	2e
1D	.	1d	1f
=129	=129	=129	=129
00AAl	00A]	00cl	00el
==	==	==	==
*-	*-	*-	*-
!!!system-decoration: [*]
!!!RDF**kern: i = editorial accidental
!!!RDF**kern: l = terminal long
!!!ENC: Benjamin Ory
!!!END: 2021/4/5
!!!EED: Benjamin Ory
!!!EEV: 2021/05/17
!!!YEC: Copyright 2021 Benjamin Ory, All Rights Reserved
!!!ONB: Translated from MusicXML on 2021/05/17